X:197
T:Reel 197
L:1/8
M: 4/4
K: G Major
dc|B2AGBGGA|BGDGBdgd|c2cAc2cA|FDEFG2dc|B2AGBGGA|BGDGBdgd|c2cAc2cA|FDEFG2:||:ef|d2gdddgd|d2gdddgd|d2gdddgd|d2gdddgd|d2gdddgd|gee2gB(3BAB|gbafgbaf|(3fedefg2:|.abc